frontend/src/shared/assets/icons/allProducts.svg

<svg width="24" height="24" viewBox="0 0 24 24" fill="none" xmlns="http://www.w3.org/2000/svg">
<path d="M16.66 4.52043L19.49 7.35043L16.66 10.1804L13.83 7.35043L16.66 4.52043ZM9 5.00043V9.00043H5V5.00043H9ZM19 15.0004V19.0004H15V15.0004H19ZM9 15.0004V19.0004H5V15.0004H9ZM16.66 1.69043L11 7.34043L16.66 13.0004L22.32 7.34043L16.66 1.69043ZM11 3.00043H3V11.0004H11V3.00043ZM21 13.0004H13V21.0004H21V13.0004ZM11 13.0004H3V21.0004H11V13.0004Z" fill="#1E1E1E"/>
</svg>

<svg xmlns="http://www.w3.org/2000/svg" width="24" height="24" fill="none"><path fill="#1E1E1E" d="m16.66 4.52 2.83 2.83-2.83 2.83-2.83-2.83 2.83-2.83ZM9 5v4H5V5h4Zm10 10v4h-4v-4h4ZM9 15v4H5v-4h4Zm7.66-13.31L11 7.34 16.66 13l5.66-5.66-5.66-5.65ZM11 3H3v8h8V3Zm10 10h-8v8h8v-8Zm-10 0H3v8h8v-8Z"/></svg>
